localPackages/DesignSystem/Sources/DesignSystem/Resources/Assets.xcassets/IconSet/ic-eraser.imageset/ic-eraser.svg

<svg width="24" height="24" viewBox="0 0 24 24" fill="none" xmlns="http://www.w3.org/2000/svg">
<g id="ic-eraser">
<path id="Icon" fill-rule="evenodd" clip-rule="evenodd" d="M16.3214 3.44048L20.5592 7.67791C21.145 8.26367 21.145 9.21338 20.5592 9.79914L18.1548 12.2033L11.7957 5.84466L14.2 3.44048C14.7858 2.85472 15.7356 2.85472 16.3214 3.44048ZM10.735 6.90528L4.93953 12.7002C4.35372 13.286 4.35372 14.2357 4.93953 14.8215L9.1773 19.0589C9.76311 19.6447 10.7129 19.6447 11.2987 19.0589L17.0941 13.2639L10.735 6.90528ZM18.6448 13.8346L12.9774 19.5016H21.75C22.1642 19.5016 22.5 19.8373 22.5 20.2516C22.5 20.6658 22.1642 21.0016 21.75 21.0016H2.25C1.83579 21.0016 1.5 20.6658 1.5 20.2516C1.5 19.8373 1.83579 19.5016 2.25 19.5016H7.49858L3.87883 15.8821C2.70721 14.7106 2.70721 12.8111 3.87883 11.6396L13.1393 2.37987C14.311 1.20834 16.2105 1.20834 17.3821 2.37986L21.6199 6.61729C22.7915 7.78881 22.7915 9.68823 21.6199 10.8598L18.7255 13.7539C18.7132 13.7682 18.7003 13.7822 18.6867 13.7958C18.6731 13.8093 18.6592 13.8223 18.6448 13.8346Z" fill="#0F0F0F"/>
</g>
</svg>

<svg xmlns="http://www.w3.org/2000/svg" width="24" height="24" viewBox="0 0 24 24">
  <g class="ic-eraser">
    <path fill-rule="evenodd" d="M16.321 3.441 20.56 7.68a1.5 1.5 0 0 1 0 2.12l-2.404 2.405-6.36-6.359L14.2 3.441a1.5 1.5 0 0 1 2.121 0Zm-5.586 3.465L4.94 12.701a1.5 1.5 0 0 0 0 2.121l4.237 4.238a1.5 1.5 0 0 0 2.122 0l5.795-5.795-6.359-6.359Zm7.91 6.93-5.668 5.666h8.773a.75.75 0 0 1 0 1.5H2.25a.75.75 0 0 1 0-1.5h5.249l-3.62-3.62a3 3 0 0 1 0-4.242l9.26-9.26a3 3 0 0 1 4.243 0l4.238 4.238a3 3 0 0 1 0 4.242l-2.895 2.895a.726.726 0 0 1-.08.08Z" class="Icon"/>
  </g>
</svg>
